X:67
T:Robin Adair
% Four-part piano arrangement for standard notation.
C:Caroline Keppel/Scotch Melody
S:From "The One Hundred and One Best Songs" / The Cable Company / 1919 / Chicago, Illinois
M:3/4
L:1/8
Q:1/4=88
%%staves [(1 2) (3 4)]
%%vocalfont Times-Roman 11
K:Bb
V:1 clef=treble
|:F2 G2 A2 | B3 c d2 | (F<B) (G<B) (A<c) | B4 z2 :| d2 d2 d2 | f3 F F2 |
w:1.~What's this dull town to me? Rob\-* in's* not* near;
w:~~What was't I wished to see, What* wished* to* hear? Where's all the joy and mirth
w:2.~What made th'~as-sem-bly shine? Rob\-* in* A\-* dair;
w:~~What made the ball so fine? Rob\-* in* was* there; What, when the play was o'er,
w:3.~But now thou'rt cold to me, Rob\-* in* A\-* dair;
w:~~But now thou'rt cold to me, Rob\-* in* A\-* dair; Yet him I loved so well,
V:2 clef=treble
|:D2 E2 F2 | F3 F F2 | F2 G2 E2 | D4 z2 :| F2 F2 F2 | F3 F F2 |
V:3 clef=bass
%%MIDI transpose -24
%%jsastem=dn
|:b2 b2 c'2 | b3 a b2 | b2 b2 a2 | b4 z2 :| b2 b2 b2 | c'3 c' c'2 |
V:4 clef=bass
%%MIDI transpose -24
%%jsastem=dn
|:B2 e2 e2 | d3 c B2 | d2 e2 f2 | B4 z2 :| b2 b2 b2 | a3 a a2 |
V:1
d2 (d f) ( (3ecA) | B3 G F2 | f2 ed cB | B3 c d2 | (F<B) (G<B) (A<c) | B4 z2 |]
w:That made this town* a heav'n on earth? Oh, they're* all* fled with thee, Rob\-* in* A\-* dair.
w:What made* my** heart so sore? Oh! it* was* part-ing with Rob\-* in* A\-* dair.
w:Still in* my** heart shall dwell, Oh! I* can* ne'er for-get Rob\-* in* A\-* dair.
V:2
F2 F- F ( (3F-FE) | D3 E D2 | F2 GF ED | F3 F F2 | F2 G2 E2 | D4 z2 |]
V:3
b2 (b d') (3c'-c'-c' | b3 b b2 | d'2 b2 f2 | b3 a b2 | b2 b2 a2 | b4 z2 |]
V:4
b2 b- b ( (3a-af) | g3 e B2 | B2 B2 B2 | d3 f b2 | d2 e2 f2 | B4 z2 |]

